dist/img/close-icon.svg

<svg width="32" height="32" viewBox="0 0 32 32" fill="none" xmlns="http://www.w3.org/2000/svg">
<path d="M16 19.3833L4.15833 31.225C3.71527 31.6681 3.15138 31.8896 2.46666 31.8896C1.78194 31.8896 1.21805 31.6681 0.774995 31.225C0.331939 30.7819 0.110413 30.2181 0.110413 29.5333C0.110413 28.8486 0.331939 28.2847 0.774995 27.8417L12.6167 16L0.774995 4.15834C0.331939 3.71528 0.110413 3.15139 0.110413 2.46667C0.110413 1.78195 0.331939 1.21806 0.774995 0.775003C1.21805 0.331947 1.78194 0.11042 2.46666 0.11042C3.15138 0.11042 3.71527 0.331947 4.15833 0.775003L16 12.6167L27.8417 0.775003C28.2847 0.331947 28.8486 0.11042 29.5333 0.11042C30.2181 0.11042 30.7819 0.331947 31.225 0.775003C31.668 1.21806 31.8896 1.78195 31.8896 2.46667C31.8896 3.15139 31.668 3.71528 31.225 4.15834L19.3833 16L31.225 27.8417C31.668 28.2847 31.8896 28.8486 31.8896 29.5333C31.8896 30.2181 31.668 30.7819 31.225 31.225C30.7819 31.6681 30.2181 31.8896 29.5333 31.8896C28.8486 31.8896 28.2847 31.6681 27.8417 31.225L16 19.3833Z" fill="white"/>
</svg>

<svg width="32" height="32" fill="none" xmlns="http://www.w3.org/2000/svg"><path d="M16 19.383 4.158 31.225c-.443.443-1.007.665-1.691.665-.685 0-1.249-.222-1.692-.665-.443-.443-.665-1.007-.665-1.692 0-.684.222-1.248.665-1.691L12.617 16 .775 4.158C.332 3.715.11 3.151.11 2.467c0-.685.222-1.249.665-1.692C1.218.332 1.782.11 2.467.11c.684 0 1.248.222 1.691.665L16 12.617 27.842.775C28.285.332 28.849.11 29.533.11c.685 0 1.249.222 1.692.665.443.443.665 1.007.665 1.692 0 .684-.222 1.248-.665 1.691L19.383 16l11.842 11.842c.443.443.665 1.007.665 1.691 0 .685-.222 1.249-.665 1.692-.443.443-1.007.665-1.692.665-.684 0-1.248-.222-1.691-.665L16 19.383Z" fill="#fff"/></svg>
